X: 7325
T: Cliff's Edge
R: hornpipe
M: 4/4
K: Dmajor
|:(3FG^G|A>dc>d A>FD>F|E>^DE<G B2 e>=d|c>de>d c>AG>E|F>^EF>G (3ABA (3FG^G|
A>dc>d A>FD>F|E>^DE<G B2 e>=d|c>eg>e c>A (3gfe|d2 D2 D2:|
|:c>d|^d>ec>A G>Eg>e|^e>fd<A F2 a>f|g>ec>A ^G>A (3=GFE|D>E^E>F d2 c>d|
^d>ec>A G>Eg>e|^e>fd<A a2 b>a|g>ec>A ^G>A (3=gfe|d2 D2 D2:|

